!! Stephen C. Foster, "We are Coming, Father Abraam"
!! from 'Stephen Foster Song Book' Dover Publications (New York) pp. 153-155
!! NOTE:  Leading and trailing bars of rest have been omitted.
**kern
*M2/4
*MM86
*C:
16g
16g
=1
8e
8g
8g
8g
=2
4cc
8g
8g
=3
8e
8g
8a
8g
=4
4.d
8g
=5
8e
8g
8g
8g
=6
8.a
16b
8cc
8dd
=7
8.ee
16cc
8dd
8dd
=8
4.cc
16r
16g
=9
8e
8g
8g
8g
=10
4cc
8g
8g
=11
8e
8g
8a
8g
=12
4.d
8g
=13
8e
8g
8g
8g
=14
8a
8b
8cc
8dd
=15
8ee
8cc
8dd
8dd
=16
4.cc
8cc
=17
8b
8dd
8dd
8dd
=18
4cc
8ee
8ee
=19
8.dd
16cc
8b
8a
=20
4.g
16g
16g
=21
8e
8g
8g
8g
=22
4a
8cc
8dd
=23
8.ee
16cc
8dd
8dd
=24
4.cc
!! Chorus:
16g
16g
=25
8e
8g
4r
=26
8f
8a
8r
8f
=27
8e
8g
8cc
8ee
=28
4.dd
16g
16g
=29
8e
8g
8g
8g
=30
8.a
16b
8cc
8dd
=31
8.ee
16cc
8dd
8dd
=32
4.cc
==
*-
